X:1
T:Reach
T:Reach
T:Robert van der Tuuk
C:Robert van der Tuuk
%%score { 1 | 2 }
L:1/8
M:4/4
K:Eb
V:1 treble nm="Piano" snm="Pno."
V:2 bass 
V:1
 C2 G2 A2 G2 | F2 G2 F2 E2 | F2 E2 D2 E2 | C8 | C3 G A2 G2 | F3 G F2 E2 | F3 E D2 E2 | C8 | %8
 C2 G3 A G2 | F2 G3 F E2 | F2 E3 D E2 | C8 | C2 G2 A3 G | F2 G2 F3 E | F2 E2 D3 E | C8 | %16
 C2 G2 A2 G2 | F2 G2 F2 E2 | F2 E2 D2 E2 | C8 | C3 G A2 G2 | F3 G F2 E2 | F3 E D2 E2 | C8 | %24
 C2 G3 A G2 | F2 G3 F E2 | F2 E3 D E2 | C8 | C2 G2 A3 G | F2 G2 F3 E | F2 E2 D3 E | C8 | %32
 C2 G2 A2 G2 | F2 G2 F2 E2 | F2 E2 D2 E2 | C8 |] %36
V:2
 [G,CE]8 | [E,A,C]8 | [F,B,D]8 |"^This Chord not that C!" [D,G,B,]8 | z8 | z8 | z8 | z8 | z8 | z8 | %10
 z8 | z8 | z8 | z8 | z8 | z8 | z8 | z8 | z8 | z8 | C2 C2 C3 C | A,2 A,2 A,3 A, | B,2 B,2 B,3 B, | %23
 G,3 A, B,2 C2 | C3 C C2 C2 | A,3 A, A,2 A,2 | B,3 B, B,2 B,2 | G,2 A,3 B, C2 | C2 C2 C3 C | %29
 A,2 A,3 A, A,2 | B,3 B, B,2 B,2 | G,3 A, B,2 C2 | C2 C2 C2 C2 | A,2 A,2 A,2 A,2 | %34
 B,2 B,2 B,2 B,2 | G,2 A,2 B,2 C2 |] %36

